X: 15196
T: Gillie Callum
R: strathspey
M: 4/4
K: Adorian
|:A<Ac>e d2 B>G|A<Ac>e d2 c>A|B>EB>e d2 B>G|A<Ac>e d>B e2:|
A<Ac>e g2 B>G|A<Ac>e a2 c>A|a2 c>A g2 B>G|A<Ac>e d>B e2|
A<Ac>e g2 B>G|A<Ac>e a>ba>f|g>ag>e d/c/B/A/ G2|A<Ac>e d>B e2||

